Origami/64x64/apps/qupzilla.svg

<svg width="64" height="64" version="1" xmlns="http://www.w3.org/2000/svg">
 <rect transform="matrix(0,-1,-1,0,0,0)" x="-60" y="-59" width="56" height="56" rx="28" ry="28" style="fill:#0286c2"/>
 <path d="M 3.0175781,32.664062 C 3.0112845,32.775968 3,32.886444 3,33 3,48.512 15.488,61 31,61 46.512,61 59,48.512 59,33 59,32.886444 58.988797,32.775968 58.982422,32.664062 58.630879,47.865819 46.289272,60 31,60 15.710728,60 3.3691213,47.865819 3.0175781,32.664062 Z" style="opacity:.2"/>
 <path d="m21.063304 17c-3.493862 0-6.678414 0.230003-9.984174 1.995512-4.9852985 8.324881-4.5541818 20.767302 0 27.93718 12.071066-13.704982 24.632954-18.957372 37.939861-18.957372 1.828142 0 4.135645 0.820336 5.990505 0.997756-5.9306-2.606139-21.442013-11.973076-33.946192-11.973076zm11.981009 17.959615c-6.094939 0.421892-11.266542 4.521433-15.974679 8.979808 5.642856-2.234177 10.616971-2.796312 15.038563-1.395303 0.764188 0.242136 3.043775 1.261922 5.070163 2.2683 5.139453 2.55266 7.681823 3.433279 11.255559 3.889653 4.269232 0.433026 8.366737-0.64455 12.566081-1.770019l-4.824353-1.710156c-2.250433-0.961836-4.980106-2.420556-8.871937-4.669499-5.269646-2.84161-9.165472-5.946628-14.259397-5.593422z" style="opacity:.2"/>
 <path d="m10.984803 46c-4.5614004-7.186-4.9932004-19.656 0-28 3.311-1.7694 6.5006-2 10-2 12.5248 0 28.06 9.3872 34 12-1.8579-0.17782-4.169-1-6-1-13.3286 0-25.91 5.2642-38 19z" style="fill:#ffffff"/>
 <path d="m56.168 44.286c-2.254-0.962-4.986-2.424-8.884-4.678-5.278-2.848-9.182-5.962-14.284-5.608-6.1046 0.42284-11.2844 4.5316-16 9 5.6518-2.2392 10.6322-2.8036 15.061-1.39962 0.7654 0.24268 3.0508 1.26632 5.0804 2.275 5.1476 2.5584 7.6918 3.439 11.271 3.8964 4.2752 0.43476 8.3808-0.64304 12.5876-1.77188z" style="fill:#7ed1f3"/>
 <path d="M 31 4 C 15.488222 4 3 16.488222 3 32 C 3 32.113554 3.0112846 32.224034 3.0175781 32.335938 C 3.3691163 17.134398 15.710946 5 31 5 C 46.289054 5 58.630884 17.134398 58.982422 32.335938 C 58.988797 32.224034 59 32.113554 59 32 C 59 16.488222 46.511778 4 31 4 z" style="fill:#ffffff;opacity:.2"/>
</svg>

<svg xmlns="http://www.w3.org/2000/svg" width="64" height="64" version="1">
 <rect style="fill:#0286c2" width="56" height="56" x="-60" y="-59" rx="28" ry="28" transform="matrix(0,-1,-1,0,0,0)"/>
 <path style="opacity:0.2" d="M 3.0175781,32.664062 C 3.0112845,32.775968 3,32.886444 3,33 3,48.512 15.488,61 31,61 46.512,61 59,48.512 59,33 59,32.886444 58.988797,32.775968 58.982422,32.664062 58.630879,47.865819 46.289272,60 31,60 15.710728,60 3.3691213,47.865819 3.0175781,32.664062 Z"/>
 <path style="opacity:0.2" d="m 21.063304,17 c -3.493862,0 -6.678414,0.230003 -9.984174,1.995512 -4.9852985,8.324881 -4.5541818,20.767302 0,27.93718 C 23.150196,33.22771 35.712084,27.97532 49.018991,27.97532 c 1.828142,0 4.135645,0.820336 5.990505,0.997756 C 49.078896,26.366937 33.567483,17 21.063304,17 Z m 11.981009,17.959615 c -6.094939,0.421892 -11.266542,4.521433 -15.974679,8.979808 5.642856,-2.234177 10.616971,-2.796312 15.038563,-1.395303 0.764188,0.242136 3.043775,1.261922 5.070163,2.2683 5.139453,2.55266 7.681823,3.433279 11.255559,3.889653 C 52.703151,49.135099 56.800656,48.057523 61,46.932054 L 56.175647,45.221898 C 53.925214,44.260062 51.195541,42.801342 47.30371,40.552399 42.034064,37.710789 38.138238,34.605771 33.044313,34.958977 Z"/>
 <path style="fill:#ffffff" d="m 10.984803,46 c -4.5614004,-7.186 -4.9932004,-19.656 0,-28 3.311,-1.7694 6.5006,-2 10,-2 12.5248,0 28.06,9.3872 34,12 -1.8579,-0.17782 -4.169,-1 -6,-1 -13.3286,0 -25.91,5.2642 -38,19 z"/>
 <path style="fill:#7ed1f3" d="M 56.168,44.286 C 53.914,43.324 51.182,41.862 47.284,39.608 42.006,36.76 38.102,33.646 33,34 c -6.1046,0.42284 -11.2844,4.5316 -16,9 5.6518,-2.2392 10.6322,-2.8036 15.061,-1.39962 0.7654,0.24268 3.0508,1.26632 5.0804,2.275 5.1476,2.5584 7.6918,3.439 11.271,3.8964 C 52.6876,48.20654 56.7932,47.12874 61,45.9999 Z"/>
 <path style="opacity:0.2;fill:#ffffff" d="M 31 4 C 15.488222 4 3 16.488222 3 32 C 3 32.113554 3.0112846 32.224034 3.0175781 32.335938 C 3.3691163 17.134398 15.710946 5 31 5 C 46.289054 5 58.630884 17.134398 58.982422 32.335938 C 58.988797 32.224034 59 32.113554 59 32 C 59 16.488222 46.511778 4 31 4 z"/>
</svg>
